X:1
T: The Claymore
C:A. Cameron
R:Strathspey
Q: 128
K:G
M:4/4
L:1/16
|:D2|G3D CB,A,G, B,D3 G4|A,A3 A3G FD3 D3c|B3G A3F G3E F3D|EA3 A3G FGFE DCB,A,|
G3D CB,A,G, B,D3 G4|A,A3 A3G FD3 D3c|((3B2A2G2) ((3A2G2F2) ((3G2F2E2) ((3D2C2B,2) |C3E D3C B,G,3 G,2Bc|
d3c Bg3 dB3 G3B|c3a B3g aA3 A2Bc|d3c B3A Gg3 d3B|c3A d3c BG3 G2Bc|
d3c Bg3 dB3 G3B|c3a B3g aA3 A2Bc|((3B2A2G2) ((3A2G2F2) ((3G2F2E2) ((3D2C2B,2) |C3E D3C B,G,3 G,2:|
